icons/envoyer-filled.svg

<svg width="256" height="256" viewBox="0 0 256 256" fill="none" xmlns="http://www.w3.org/2000/svg">
<rect width="256" height="256" rx="60" fill="#F56857" />
<path d="M135.941 215.48L136.663 156.44C138.107 155.36 139.551 154.64 140.995 153.56C143.161 151.76 145.327 149.24 147.493 146.72C150.02 148.16 152.185 149.96 154.351 152.12C154.351 152.48 154.712 152.84 155.073 153.2L154.712 211.52C148.576 213.32 142.078 214.76 135.941 215.48ZM97.3171 211.16V152.48L98.4 151.4C100.566 149.24 102.732 147.44 105.259 146C107.063 148.52 109.229 151.04 111.756 152.84C113.2 153.92 114.644 155 116.088 155.72L115.727 215.12C109.59 214.4 103.454 213.32 97.3171 211.16ZM126.556 38C141.717 38 153.99 63.2 154.712 93.44C154.712 96.32 154.712 99.2 154.351 102.08C166.263 110.36 173.844 124.4 173.844 140.24C173.844 146.72 172.4 153.2 169.873 158.96C165.18 148.16 156.156 139.16 145.327 134.48C140.273 143.48 133.776 148.88 126.556 148.88C119.337 148.88 112.839 143.48 108.146 134.48C96.9561 139.16 87.9317 148.16 83.239 158.96C80.7122 153.2 79.2683 147.08 79.2683 140.24C79.2683 124.4 87.2098 110.72 99.122 102.08C98.761 99.2 98.761 96.32 98.761 93.44C98.761 62.84 111.395 38 126.556 38ZM126.195 74C119.698 74 114.283 79.4 113.922 86.24C113.922 93.08 119.337 98.48 126.195 98.48C133.054 98.48 138.468 93.08 138.468 86.24C138.468 79.4 133.054 74 126.195 74ZM90.8195 183.8V205.76C70.6049 193.88 56.5268 173.36 54 149.24C59.4146 149.96 65.5512 150.68 72.4098 151.4C74.9366 164.36 81.4341 175.52 90.8195 183.8ZM72.7707 128.36C65.9122 129.08 59.7756 129.8 54.361 130.52C57.6098 106.04 73.1317 85.16 94.4293 74C94.0683 78.32 93.7073 82.64 93.7073 87.32V92.72C87.9317 97.4 83.239 103.16 79.9902 109.64C79.2683 110.72 78.9073 112.16 78.1854 113.6C76.0195 118.28 73.8537 123.32 72.7707 128.36ZM162.654 205.4V183.44C172.039 175.16 178.537 164 181.063 151.04C187.922 150.68 194.059 149.6 199.473 148.88C196.585 173 182.507 193.88 162.654 205.4ZM199.112 130.52C193.698 129.8 187.561 129.08 180.702 128.36C179.62 123.32 177.815 118.28 175.288 113.96C174.927 112.52 174.205 111.44 173.483 110C170.234 103.52 165.541 97.76 160.127 93.08V92.36V87.68C160.127 83 159.766 78.68 159.405 74.36C180.702 85.52 195.863 106.04 199.112 130.52Z" fill="white"/>
</svg>

<svg xmlns="http://www.w3.org/2000/svg" width="256" height="256" fill="none"><rect width="256" height="256" fill="#F56857" rx="60"/><path fill="#fff" d="m135.941 215.48.722-59.04c1.444-1.08 2.888-1.8 4.332-2.88 2.166-1.8 4.332-4.32 6.498-6.84 2.527 1.44 4.692 3.24 6.858 5.4 0 .36.361.72.722 1.08l-.361 58.32c-6.136 1.8-12.634 3.24-18.771 3.96m-38.624-4.32v-58.68l1.083-1.08c2.166-2.16 4.332-3.96 6.859-5.4 1.804 2.52 3.97 5.04 6.497 6.84 1.444 1.08 2.888 2.16 4.332 2.88l-.361 59.4c-6.137-.72-12.273-1.8-18.41-3.96M126.556 38c15.161 0 27.434 25.2 28.156 55.44 0 2.88 0 5.76-.361 8.64 11.912 8.28 19.493 22.32 19.493 38.16 0 6.48-1.444 12.96-3.971 18.72-4.693-10.8-13.717-19.8-24.546-24.48-5.054 9-11.551 14.4-18.771 14.4-7.219 0-13.717-5.4-18.41-14.4-11.19 4.68-20.214 13.68-24.907 24.48-2.527-5.76-3.97-11.88-3.97-18.72 0-15.84 7.94-29.52 19.853-38.16-.361-2.88-.361-5.76-.361-8.64 0-30.6 12.634-55.44 27.795-55.44m-.361 36c-6.497 0-11.912 5.4-12.273 12.24 0 6.84 5.415 12.24 12.273 12.24 6.859 0 12.273-5.4 12.273-12.24S133.054 74 126.195 74M90.82 183.8v21.96c-20.215-11.88-34.293-32.4-36.82-56.52q8.122 1.08 18.41 2.16c2.527 12.96 9.024 24.12 18.41 32.4m-18.05-55.44q-10.287 1.08-18.409 2.16C57.61 106.04 73.131 85.16 94.429 74c-.36 4.32-.722 8.64-.722 13.32v5.4c-5.775 4.68-10.468 10.44-13.717 16.92-.722 1.08-1.083 2.52-1.805 3.96-2.166 4.68-4.331 9.72-5.414 14.76m89.884 77.04v-21.96c9.385-8.28 15.883-19.44 18.409-32.4 6.859-.36 12.996-1.44 18.41-2.16-2.888 24.12-16.966 45-36.819 56.52m36.458-74.88q-8.121-1.08-18.41-2.16c-1.082-5.04-2.887-10.08-5.414-14.4-.361-1.44-1.083-2.52-1.805-3.96-3.249-6.48-7.942-12.24-13.356-16.92v-5.4c0-4.68-.361-9-.722-13.32 21.297 11.16 36.458 31.68 39.707 56.16"/></svg>
